src/img/box.svg

<?xml version="1.0" encoding="UTF-8" standalone="no"?>
<!-- Created with Inkscape (http://www.inkscape.org/) -->

<svg
   xmlns:dc="http://purl.org/dc/elements/1.1/"
   xmlns:cc="http://creativecommons.org/ns#"
   xmlns:rdf="http://www.w3.org/1999/02/22-rdf-syntax-ns#"
   xmlns:svg="http://www.w3.org/2000/svg"
   xmlns="http://www.w3.org/2000/svg"
   xmlns:sodipodi="http://sodipodi.sourceforge.net/DTD/sodipodi-0.dtd"
   xmlns:inkscape="http://www.inkscape.org/namespaces/inkscape"
   id="svg2"
   sodipodi:docname="box.svg"
   viewBox="0 0 77.629737 47.487217"
   sodipodi:version="0.32"
   version="1.0"
   inkscape:output_extension="org.inkscape.output.svg.inkscape"
   inkscape:version="0.92.4 (33fec40, 2019-01-16)"
   width="77.629997"
   height="74.999992">
  <sodipodi:namedview
     id="base"
     bordercolor="#666666"
     inkscape:pageshadow="2"
     guidetolerance="10.0"
     pagecolor="#ffffff"
     gridtolerance="10.0"
     inkscape:zoom="0.8131728"
     objecttolerance="10.0"
     borderopacity="1.0"
     inkscape:current-layer="svg2"
     inkscape:cx="532.5678"
     inkscape:guide-bbox="true"
     inkscape:cy="-202.94137"
     inkscape:window-y="133"
     inkscape:window-x="164"
     inkscape:window-height="1179"
     showgrid="false"
     inkscape:pageopacity="0.0"
     inkscape:window-width="2194"
     showguides="true"
     inkscape:window-maximized="0"
     fit-margin-top="0"
     fit-margin-left="0"
     fit-margin-right="0"
     fit-margin-bottom="0">
    <sodipodi:guide
       id="guide2886"
       position="130.7999,-27.830527"
       orientation="0,1"
       inkscape:locked="false" />
    <sodipodi:guide
       id="guide3436"
       position="-45.633311,-28.988463"
       orientation="1,0"
       inkscape:locked="false" />
  </sodipodi:namedview>
  <defs
     id="defs5">
    <linearGradient
       id="linearGradient3498"
       y2="722.69"
       gradientUnits="userSpaceOnUse"
       x2="1800.9"
       gradientTransform="matrix(1.0373492,0,0,0.95357681,-1844.7838,-671.06107)"
       y1="721.07001"
       x1="1779.5"
       inkscape:collect="always">
      <stop
         id="stop3359"
         style="stop-color:#bb9652"
         offset="0" />
      <stop
         id="stop3361"
         style="stop-color:#d4bf8a"
         offset="1" />
    </linearGradient>
    <linearGradient
       id="linearGradient3501"
       y2="707.71002"
       gradientUnits="userSpaceOnUse"
       x2="1828.8"
       gradientTransform="matrix(1.0373492,0,0,0.95357681,-1844.4533,-670.75726)"
       y1="754.31"
       x1="1834"
       inkscape:collect="always">
      <stop
         id="stop3375"
         style="stop-color:#a28650"
         offset="0" />
      <stop
         id="stop3377"
         style="stop-color:#dac491"
         offset="1" />
    </linearGradient>
    <linearGradient
       id="linearGradient3504"
       y2="695.62"
       gradientUnits="userSpaceOnUse"
       x2="1835.6"
       gradientTransform="matrix(1.0373492,0,0,0.95357681,-1844.4533,-670.75726)"
       y1="704.37"
       x1="1788.1"
       inkscape:collect="always">
      <stop
         id="stop3367"
         style="stop-color:#dccb94"
         offset="0" />
      <stop
         id="stop3369"
         style="stop-color:#c4a95a"
         offset="1" />
    </linearGradient>
  </defs>
  <path
     id="path2894"
     style="fill:#d3bc5f;fill-rule:evenodd;stroke-width:0.39607397"
     d="m 45.541429,-12.966135 31.51581,12.32613239 V 42.236968 L 45.541429,20.858481 v -33.823856 z"
     inkscape:connector-curvature="0" />
  <path
     id="path2896"
     style="fill:url(#linearGradient3504);fill-rule:evenodd;stroke-width:0.39607397"
     d="M 0.60450805,-6.5728287 23.691734,10.057708 77.056699,-0.64007861 45.540879,-12.966211 0.60326905,-6.5728287 Z"
     inkscape:connector-curvature="0" />
  <path
     id="path2898"
     style="fill:url(#linearGradient3501);fill-rule:evenodd;stroke-width:0.39607397"
     d="M 23.691858,10.057708 V 60.856156 L 77.056819,42.237272 V -0.63969861 L 23.691858,10.058847 Z"
     inkscape:connector-curvature="0" />
  <path
     id="path2900"
     style="fill:url(#linearGradient3498);fill-rule:evenodd;stroke-width:0.39607397"
     d="M 0.23771205,-6.9100427 23.324938,9.7204943 V 60.522734 L 0.23771205,31.654547 l -8.3e-5,-38.5668687 z"
     inkscape:connector-curvature="0" />
  <path
     id="path2575"
     sodipodi:nodetypes="cc"
     style="fill:none;stroke:#784421;stroke-width:0.9945814px"
     d="M 24.80146,-9.7900257 52.997979,4.0615393"
     inkscape:connector-curvature="0" />
  <path
     id="path3353"
     style="fill:none;stroke:#c7a768;stroke-width:0.9945814px"
     d="M 0.62838705,-6.5713107 23.709415,9.9973283 77.264409,-0.61121761"
     inkscape:connector-curvature="0" />
  <path
     id="path2577"
     sodipodi:nodetypes="cccccccccccc"
     style="opacity:0.42168998;fill:#34dbdb;fill-opacity:0.36486003;fill-rule:evenodd;stroke:#ffffff;stroke-width:0.19891626"
     d="m 58.186579,3.1581273 0.0785,4.097446 -1.58632,-2.473277 -1.2641,2.860995 -1.20214,-2.384036 -1.52023,2.473276 -0.71467,-1.430498 -1.61938,2.503277 -0.64857,-1.907077 -1.91268,2.860616 -0.14872,-4.499594 z"
     inkscape:connector-curvature="0" />
  <path
     id="path3355"
     style="fill:none;stroke:#c7a768;stroke-width:0.9945814px"
     d="M 23.579907,9.8780893 V 60.892984"
     inkscape:connector-curvature="0" />
  <path
     id="path3349"
     sodipodi:nodetypes="ccccc"
     style="opacity:0.5;fill:#a9c7c9;fill-rule:evenodd;stroke:#ffffff;stroke-width:0.19891626"
     d="M 47.631739,5.2292533 20.27341,-9.3723067 28.961018,-10.564326 58.265069,3.1433163 Z"
     inkscape:connector-curvature="0" />
  <path
     id="path3351"
     sodipodi:nodetypes="cccccccc"
     style="fill:none;stroke:#6c5434;stroke-width:0.9945814px"
     d="M 0.49871205,-6.5713107 0.62838705,31.931002 23.32027,60.658691 77.131389,42.18031 77.003329,-0.84855861 45.363579,-13.244943 2.204384,-6.8549797 Z"
     inkscape:connector-curvature="0" />
  <metadata
     id="metadata25">
    <rdf:RDF>
      <cc:Work>
        <dc:format>image/svg+xml</dc:format>
        <dc:type
           rdf:resource="http://purl.org/dc/dcmitype/StillImage" />
        <cc:license
           rdf:resource="http://creativecommons.org/publicdomain/zero/1.0/" />
        <dc:publisher>
          <cc:Agent
             rdf:about="http://openclipart.org/">
            <dc:title>Openclipart</dc:title>
          </cc:Agent>
        </dc:publisher>
        <dc:title>Cardboard box / package</dc:title>
        <dc:date>2009-05-21T05:05:20</dc:date>
        <dc:description>A cardboard packing box with tape holding it shut. Classic packing box / software package image. Enjoy!</dc:description>
        <dc:source>https://openclipart.org/detail/26101/cardboard-box-/-package-by-kliponius</dc:source>
        <dc:creator>
          <cc:Agent>
            <dc:title>Kliponius</dc:title>
          </cc:Agent>
        </dc:creator>
        <dc:subject>
          <rdf:Bag>
            <rdf:li>box</rdf:li>
            <rdf:li>cardboard</rdf:li>
            <rdf:li>icon</rdf:li>
            <rdf:li>package</rdf:li>
            <rdf:li>packaging</rdf:li>
          </rdf:Bag>
        </dc:subject>
      </cc:Work>
      <cc:License
         rdf:about="http://creativecommons.org/publicdomain/zero/1.0/">
        <cc:permits
           rdf:resource="http://creativecommons.org/ns#Reproduction" />
        <cc:permits
           rdf:resource="http://creativecommons.org/ns#Distribution" />
        <cc:permits
           rdf:resource="http://creativecommons.org/ns#DerivativeWorks" />
      </cc:License>
    </rdf:RDF>
  </metadata>
</svg>

<svg
      xmlns="http://www.w3.org/2000/svg"
      width="77.63"
      height="75"
      version="1"
      viewBox="0 0 77.63 47.487"
    >
      <defs>
        <linearGradient
          id="linearGradient3498"
          x1="1779.5"
          x2="1800.9"
          y1="721.07"
          y2="722.69"
          gradientTransform="matrix(1.03735 0 0 .95358 -1844.784 -671.061)"
          gradientUnits="userSpaceOnUse"
        >
          <stop offset="0" stopColor="#bb9652"></stop>
          <stop offset="1" stopColor="#d4bf8a"></stop>
        </linearGradient>
        <linearGradient
          id="linearGradient3501"
          x1="1834"
          x2="1828.8"
          y1="754.31"
          y2="707.71"
          gradientTransform="matrix(1.03735 0 0 .95358 -1844.453 -670.757)"
          gradientUnits="userSpaceOnUse"
        >
          <stop offset="0" stopColor="#a28650"></stop>
          <stop offset="1" stopColor="#dac491"></stop>
        </linearGradient>
        <linearGradient
          id="linearGradient3504"
          x1="1788.1"
          x2="1835.6"
          y1="704.37"
          y2="695.62"
          gradientTransform="matrix(1.03735 0 0 .95358 -1844.453 -670.757)"
          gradientUnits="userSpaceOnUse"
        >
          <stop offset="0" stopColor="#dccb94"></stop>
          <stop offset="1" stopColor="#c4a95a"></stop>
        </linearGradient>
      </defs>
      <path
        fill="#d3bc5f"
        fillRule="evenodd"
        strokeWidth="0.396"
        d="M45.541-12.966L77.057-.64v42.877L45.541 20.858v-33.823z"
      ></path>
      <path
        fill="url(#linearGradient3504)"
        fillRule="evenodd"
        strokeWidth="0.396"
        d="M.605-6.573l23.087 16.63L77.057-.64 45.54-12.966.603-6.573z"
      ></path>
      <path
        fill="url(#linearGradient3501)"
        fillRule="evenodd"
        strokeWidth="0.396"
        d="M23.692 10.058v50.798l53.365-18.619V-.64L23.692 10.06z"
      ></path>
      <path
        fill="url(#linearGradient3498)"
        fillRule="evenodd"
        strokeWidth="0.396"
        d="M.238-6.91L23.325 9.72v50.803L.238 31.655V-6.912z"
      ></path>
      <path
        fill="none"
        stroke="#784421"
        strokeWidth="0.995"
        d="M24.801-9.79L52.998 4.062"
      ></path>
      <path
        fill="none"
        stroke="#c7a768"
        strokeWidth="0.995"
        d="M.628-6.571L23.71 9.997 77.264-.61"
      ></path>
      <path
        fill="#34dbdb"
        fillOpacity="0.365"
        fillRule="evenodd"
        stroke="#fff"
        strokeWidth="0.199"
        d="M58.187 3.158l.078 4.098-1.586-2.474-1.264 2.861-1.202-2.384-1.52 2.474-.715-1.431-1.62 2.503-.648-1.907-1.913 2.86-.149-4.499z"
        opacity="0.422"
      ></path>
      <path
        fill="none"
        stroke="#c7a768"
        strokeWidth="0.995"
        d="M23.58 9.878v51.015"
      ></path>
      <path
        fill="#a9c7c9"
        fillRule="evenodd"
        stroke="#fff"
        strokeWidth="0.199"
        d="M47.632 5.23L20.273-9.373l8.688-1.192L58.265 3.143z"
        opacity="0.5"
      ></path>
      <path
        fill="none"
        stroke="#6c5434"
        strokeWidth="0.995"
        d="M.499-6.571l.13 38.502L23.32 60.659 77.131 42.18 77.003-.849l-31.64-12.396-43.159 6.39z"
      ></path>
    </svg>
